X: 10602
M: C
L: 1/8
K: Edor	% Or maybe D
E2-E>F BEEF | E2-EF d>FDF |\
E2E>F EFGA | (B/c/d) AG FDD :|
|: F |\
E>ee^d eEEF | Ee-ec dD-DF |\
Ee-ed Bcde | faef dDDF :|


